X:1
L:1/8
M:4/4
K:C
[M:6/8][K:Bmin] MC[Q:1/8=60].d/e/ | f>gf/e/ dfa | e2 d/B/ A2 f/e/ | dcB A<FA | Bba bfe | 
 f>gf/e/ dfa | e g/f/e/d/ c2 e | dcB AFA | B3 B2 :| c | d>ed/c/ d2 f | a>ba/f/ a2 f | e>fe/d/ efa | 
 !fermata!b4 fa | ba f/e/ dfa | e2 d/B/ A2 f/e/ | dcB AFA | B3 B2 :|
